src/assets/duotone/Notification.svg

<svg width="24" height="24" viewBox="0 0 24 24"  xmlns="http://www.w3.org/2000/svg">
<path opacity="0.4" d="M19.3399 14.4904L18.3399 12.8304C18.1299 12.4604 17.9399 11.7604 17.9399 11.3504V8.82039C17.9399 5.56039 15.2899 2.90039 12.0199 2.90039C8.74994 2.90039 6.09994 5.56039 6.09994 8.82039V11.3504C6.09994 11.7604 5.90994 12.4604 5.69994 12.8204L4.68994 14.4904C4.28994 15.1604 4.19994 15.9004 4.44994 16.5804C4.68994 17.2504 5.25994 17.7704 5.99994 18.0204C7.93994 18.6804 9.97994 19.0004 12.0199 19.0004C14.0599 19.0004 16.0999 18.6804 18.0399 18.0304C18.7399 17.8004 19.2799 17.2704 19.5399 16.5804C19.7999 15.8904 19.7299 15.1304 19.3399 14.4904Z" />
<path d="M14.2498 3.32C13.5598 3.05 12.8098 2.9 12.0198 2.9C11.2398 2.9 10.4898 3.04 9.7998 3.32C10.2298 2.51 11.0798 2 12.0198 2C12.9698 2 13.8098 2.51 14.2498 3.32Z" />
<path d="M14.8302 20.01C14.4102 21.17 13.3002 22 12.0002 22C11.2102 22 10.4302 21.68 9.88018 21.11C9.56018 20.81 9.32018 20.41 9.18018 20C9.31018 20.02 9.44018 20.03 9.58018 20.05C9.81018 20.08 10.0502 20.11 10.2902 20.13C10.8602 20.18 11.4402 20.21 12.0202 20.21C12.5902 20.21 13.1602 20.18 13.7202 20.13C13.9302 20.11 14.1402 20.1 14.3402 20.07C14.5002 20.05 14.6602 20.03 14.8302 20.01Z" />
</svg>

<?xml version="1.0" encoding="UTF-8"?>
<svg width="24" height="24" viewBox="0 0 24 24" xmlns="http://www.w3.org/2000/svg">
 <path d="m19.34 14.49-1-1.66c-0.21-0.37-0.4-1.07-0.4-1.48v-2.53c0-3.26-2.65-5.92-5.92-5.92-3.27 0-5.92 2.66-5.92 5.92v2.53c0 0.41-0.19 1.11-0.4 1.47l-1.01 1.67c-0.4 0.67-0.49 1.41-0.24 2.09 0.24 0.67 0.81 1.19 1.55 1.44 1.94 0.66 3.98 0.98 6.02 0.98 2.04 0 4.08-0.32 6.02-0.97 0.7-0.23 1.24-0.76 1.5-1.45s0.19-1.45-0.2-2.09z" opacity=".4"/>
 <path d="m14.25 3.32c-0.69-0.27-1.44-0.42-2.23-0.42-0.78 0-1.53 0.14-2.22 0.42 0.43-0.81 1.28-1.32 2.22-1.32 0.95 0 1.79 0.51 2.23 1.32z"/>
 <path d="m14.83 20.01c-0.42 1.16-1.53 1.99-2.83 1.99-0.79 0-1.57-0.32-2.12-0.89-0.32-0.3-0.56-0.7-0.7-1.11 0.13 0.02 0.26 0.03 0.4 0.05 0.23 0.03 0.47002 0.06 0.71002 0.08 0.57 0.05 1.15 0.08 1.73 0.08 0.57 0 1.14-0.03 1.7-0.08 0.21-0.02 0.42-0.03 0.62-0.06 0.16-0.02 0.32-0.04 0.49-0.06z"/>
</svg>
